build/service/IntervalOutline.svg

<svg xmlns="http://www.w3.org/2000/svg" fill="none" viewBox="0 0 24 24" focusable="false"><path d="M0 0H24V24H0z"/><path fill="#74767B" fill-rule="evenodd" d="M18.2999 10.2501C18.2999 9.89111 18.5909 9.6001 18.9498 9.6001C19.3088 9.6001 19.5998 9.89111 19.5998 10.2501L19.5998 12.8501C19.5998 13.2091 19.3088 13.5001 18.9498 13.5001C18.5909 13.5001 18.2999 13.2091 18.2999 12.8501L18.2999 12.0998L4.90014 12.0998L4.90014 12.8501C4.90014 13.2091 4.60913 13.5001 4.25014 13.5001C3.89116 13.5001 3.60014 13.2091 3.60014 12.8501L3.60014 11.4568L3.60014 10.2501C3.60014 9.89111 3.89116 9.6001 4.25014 9.6001C4.60913 9.6001 4.90014 9.89111 4.90014 10.2501L4.90014 10.7998L18.2999 10.7998L18.2999 10.2501Z"/></svg>

<svg xmlns="http://www.w3.org/2000/svg" fill="none" viewBox="0 0 24 24" focusable="false"><path fill="#74767B" fill-rule="evenodd" d="M18.29 10.25c0-.36.3-.65.65-.65.36 0 .65.29.65.65v2.6c0 .35-.29.65-.65.65-.35 0-.65-.3-.65-.65v-.76H4.89v.76c0 .35-.29.65-.64.65-.36 0-.65-.3-.65-.65v-2.6c0-.36.29-.65.65-.65.35 0 .64.29.64.65v.54h13.4z"/></svg>
